static/assets/images/exchanges/bitstamp.svg

<svg width="229" height="256" viewBox="0 0 229 256" fill="none" xmlns="http://www.w3.org/2000/svg">
<path d="M139.234 255.99C154.745 256.161 170.697 254.227 185.069 248.057C199.442 241.886 212.297 231.75 219.973 218.087C231.162 198.61 231.431 173.402 221.025 153.472C213.447 138.928 199.87 128.265 184.714 122.45C194.508 117.332 203.666 110.55 209.652 101.209C219.091 88.0729 220.499 71.0559 218.381 55.4591C216.028 42.4237 209.537 30.4935 199.87 21.4375C185.486 8.12997 165.898 1.33544 146.628 0.0989542C97.9769 -0.0724395 49.4113 0.0132573 0.845703 0.0989542C0.9314 11.3008 0.747773 22.4903 0.931409 33.7778C7.18728 34.0349 13.4431 35.1857 18.9155 38.3565C30.2765 44.0859 37.5974 56.1692 38.8339 68.6809C39.4265 78.9933 35.9043 89.1197 29.04 96.8384C21.8904 104.686 11.4966 109.619 0.882448 109.179C0.968144 119.401 0.882438 129.624 0.968135 139.944C8.37479 140.47 15.9528 142.148 22.0373 146.555C33.1412 153.692 39.4827 167 38.8706 180.05C39.3455 186.791 38.1338 193.544 35.3448 199.699C29.346 212.835 15.4264 222.09 0.882448 221.833C0.968144 233.194 0.882448 244.567 0.882448 255.941L139.234 255.99ZM177.577 189.171C176.233 195.251 173.368 200.891 169.25 205.563C165.133 210.235 159.898 213.786 154.035 215.884C145.404 219.14 136.051 218.797 126.979 218.797C109.84 218.797 92.7739 218.699 75.6713 218.883C75.4999 193.051 75.4999 167.224 75.6713 141.401C89.8725 141.67 104.147 141.486 118.422 141.486C128.032 141.572 137.814 141.046 147.338 142.552C157.389 144.572 167.085 150.13 172.631 158.944C178.544 167.759 179.597 178.948 177.577 189.171ZM75.4999 36.8629H130.676C142.221 36.4222 154.39 40.6458 162.237 49.3746C169.644 57.4913 171.664 69.2073 169.901 79.7847C167.967 92.6515 157.034 102.788 144.865 106.228C137.52 108.616 129.709 107.734 122.045 107.906H75.5244C75.5856 84.192 75.5856 60.5764 75.4999 36.8629Z" fill="#42C952"/>
</svg>

<svg xmlns="http://www.w3.org/2000/svg" fill="none" viewBox="0 0 229 256"><path fill="#42C952" d="M139.234 255.99c15.511.171 31.463-1.763 45.835-7.933 14.373-6.171 27.228-16.307 34.904-29.97 11.189-19.477 11.458-44.685 1.052-64.615-7.578-14.544-21.155-25.207-36.311-31.022 9.794-5.118 18.952-11.9 24.938-21.241 9.439-13.136 10.847-30.153 8.729-45.75a61.6 61.6 0 0 0-18.511-34.021C185.486 8.13 165.898 1.334 146.628.099 97.977-.072 49.411.013.846.099.93 11.301.748 22.49.93 33.778c6.256.257 12.512 1.408 17.985 4.578 11.36 5.73 18.681 17.813 19.918 30.325a39 39 0 0 1-9.794 28.157C21.89 104.686 11.497 109.62.882 109.18c.086 10.222 0 20.445.086 30.765 7.407.526 14.985 2.204 21.07 6.611C33.14 153.692 39.482 167 38.87 180.05a40.7 40.7 0 0 1-3.526 19.649C29.346 212.835 15.426 222.09.882 221.833c.086 11.361 0 22.734 0 34.108zm38.343-66.819a36.81 36.81 0 0 1-23.542 26.713c-8.631 3.256-17.984 2.913-27.056 2.913-17.139 0-34.205-.098-51.308.086a5838 5838 0 0 1 0-77.482c14.201.269 28.476.085 42.751.085 9.61.086 19.392-.44 28.916 1.066 10.051 2.02 19.747 7.578 25.293 16.392 5.913 8.815 6.966 20.004 4.946 30.227M75.5 36.863h55.176c11.545-.44 23.714 3.783 31.561 12.512 7.407 8.116 9.427 19.832 7.664 30.41-1.934 12.867-12.867 23.003-25.036 26.443-7.345 2.388-15.156 1.506-22.82 1.678h-46.52c.06-23.714.06-47.33-.025-71.043"/></svg>
